X: 1229
T:Gan Ainm
M:4/4
L:1/8
R:Reel
D:Session tape - Corofin, Clare
Z:Bernie Stocks
K:D
D3F EDB,A, | D3E FAA2 |1 Beed e2de | f2ed BAFE :|2 Beed e2dB | AFEF D4 ::\
ABdg fedf | afdf edBd | ABdg fedf | afdf e2dB|\
ABdg fedf | afdf edBc | d2dB ABAG | FDEF D4 :|
